assets/img/icons/duotone-icons/Home/Wood-horse.svg

<?xml version="1.0" encoding="UTF-8"?>
<svg width="24px" height="24px" viewBox="0 0 24 24" version="1.1" xmlns="http://www.w3.org/2000/svg" xmlns:xlink="http://www.w3.org/1999/xlink">
    <!-- Generator: Sketch 52.2 (67145) - http://www.bohemiancoding.com/sketch -->
    <title>Stockholm-icons / Home / Wood-horse</title>
    <desc>Created with Sketch.</desc>
    <g id="Stockholm-icons-/-Home-/-Wood-horse" stroke="none" stroke-width="1" fill="none" fill-rule="evenodd">
        <rect id="bound" x="0" y="0" width="24" height="24"></rect>
        <path d="M6.98113892,21.5 L7.61810208,21.5 C7.84357761,21.5 8.04115745,21.3490893 8.10048399,21.1315587 L9.37729932,16.4497595 C9.44617559,16.1972133 9.69816937,16.0405293 9.95512991,16.0904778 C11.3596584,16.3634926 12.3746151,16.5 13,16.5 C13.646503,16.5 15.0010968,16.3541177 17.0637814,16.0623532 L17.0637875,16.0623965 C17.3131816,16.0271199 17.5498754,16.1828763 17.6161485,16.4258779 L18.899516,21.1315587 C18.9588425,21.3490893 19.1564224,21.5 19.3818979,21.5 L20.0384026,21.5 C20.2990829,21.5 20.5160222,21.2997228 20.5368102,21.0398726 L21.1544815,13.3189809 C21.3306498,11.1168774 19.6883048,9.18890717 17.4862013,9.01273889 C17.3800862,9.00424968 17.2736745,9 17.1672204,9 L13,9 C12.0256112,6.96792142 11.1922779,5.63458808 10.5,5 C10.1827335,4.70917234 8.36084967,3.94216891 5.03434861,2.69898968 L5.03438003,2.69890562 C4.87913228,2.64088647 4.7062453,2.71970582 4.64822614,2.87495357 C4.62696245,2.93185098 4.62346541,2.99386164 4.63819725,3.05278899 L4.92939183,4.21785549 C4.97292798,4.39200007 4.919759,4.57611822 4.79008912,4.70024499 C4.13636504,5.32602378 3.70633533,5.75927545 3.5,6 C3.28507393,6.25074708 2.97597493,7.00745907 2.57270301,8.27013596 L2.5727779,8.27015988 C2.52651585,8.4150101 2.54869436,8.57304154 2.6330412,8.69956179 L3.23554277,9.60331416 C3.38359021,9.82538532 3.67995409,9.89202755 3.9088158,9.75471052 L4.75,9.25 C5.15859127,9.00484524 5.68855714,9.13733671 5.9337119,9.54592798 C6.00837879,9.67037279 6.05044776,9.81164184 6.05602542,9.95666096 L6.48150833,21.0192166 C6.49183398,21.2876836 6.71247339,21.5 6.98113892,21.5 Z" id="Path-106" fill="#335EEA"></path>
    </g>
</svg>

<svg width="24" height="24" viewBox="0 0 24 24" xmlns="http://www.w3.org/2000/svg"><g fill="none" fill-rule="evenodd"><path d="M0 0h24v24H0z"/><path d="M6.981 21.5h.637a.5.5 0 00.482-.368l1.277-4.682a.5.5 0 01.578-.36c1.405.273 2.42.41 3.045.41.647 0 2.001-.146 4.064-.438a.5.5 0 01.552.364l1.284 4.706a.5.5 0 00.482.368h.656a.5.5 0 00.499-.46l.617-7.721A4 4 0 0017.167 9H13c-.974-2.032-1.808-3.365-2.5-4-.317-.29-2.14-1.058-5.466-2.301a.3.3 0 00-.396.354l.291 1.165a.5.5 0 01-.139.482C4.136 5.326 3.706 5.76 3.5 6c-.215.25-.524 1.007-.927 2.27a.5.5 0 00.06.43l.603.903a.5.5 0 00.673.152l.841-.505a.863.863 0 011.306.707l.426 11.062a.5.5 0 00.5.481z" fill="#335EEA"/></g></svg>
